X: 471
T: Chinese Breakdown
B: jims roots
M:2/4
L:1/8
R: Reel
Q: 1/4=100
K:D
V:1 
((3A1/2B1/2c1/2) | "D"dA BA|FF1/2F1/2 F ((3A1/2B1/2c1/2) | dA BA | "A7"GG1/2G1/2 GA1/2B1/2 |
cA BA | cc1/2c1/2 cA1/2B1/2 | cA BA | "D"FF1/2F1/2 F ((3A1/2B1/2c1/2) | dA BA | FF1/2F1/2 FF1/2E1/2|
DF EF | "G"GG1/2G1/2 Gc1/2d1/2 | "A7"ee1/2e1/2 e1/2f1/2e1/2d1/2 | cc1/2c1/2 c1/2d1/2c1/2B1/2 | AA1/2A1/2 B1/2A1/2c1/2A1/2 | "D"dd1/2d1/2 dz ||
A | "D"df fA | df fA | df ed | "A7"e2 e^g | aa1/2a1/2 ab1/2a1/2 | gg1/2g1/2 g1/2a1/2g1/2f1/2 | e^d e=f | "D"^f3 A |
df fA | df fA | df gf | "G"B4 | "A"ee1/2e1/2 e1/2f1/2e1/2d1/2 | cc1/2c 1/2c1/2d1/2c1/2B1/2 | AA1/2A1/2 B1/2A1/2c1/2A1/2 | "D"dd1/2d1/2 dz ||
% abcbook-tune_id 6298c245dec5c9891b0d52f3


% abcbook-boost 0
% abcbook-tablature 
% abcbook-transpose 
% abcbook-lastupdated 1654178373709
% abcbook-soundfonts 
% abcbook-repeats 1


